report_00007_2020-12-11T15:55:29.892Z/bootup-time/comparison/line/1_vs_2.svg

<svg width="640" height="500" xmlns="http://www.w3.org/2000/svg" xmlns:xlink="http://www.w3.org/1999/xlink"><path fill="#fff" d="M0 0h640v500H0z"/><defs><path id="d" stroke-width=".222" stroke="currentColor" d="M-1-1h2v2h-2z"/><path id="b" stroke-width=".222" stroke="currentColor" d="M0-1.33l-1.33 2h2.66z"/><path id="f" stroke-width=".222" stroke="currentColor" d="M0 1.33L1.265.411.782-1.067l-1.564-.009-.483 1.487z"/><use xlink:href="#b" id="c" stroke="currentColor" transform="rotate(180)"/><use xlink:href="#d" id="e" stroke="currentColor" transform="rotate(45)"/><circle id="a" stroke-width=".222" stroke="currentColor" cx="0" cy="0" r="1"/></defs><g fill="none" color="#000" stroke="currentColor"><path stroke="#000" d="M53.9 396.8h9m552.1 0h-9"/><text transform="translate(45.6 400.7)" stroke="none" fill="#000" font-family="Arial" font-size="12" text-anchor="end"><tspan>550</tspan></text></g><g fill="none" color="#000" stroke="currentColor"><path stroke="#000" d="M53.9 301.8h9m552.1 0h-9"/><text transform="translate(45.6 305.7)" stroke="none" fill="#000" font-family="Arial" font-size="12" text-anchor="end"><tspan>600</tspan></text></g><g fill="none" color="#000" stroke="currentColor"><path stroke="#000" d="M53.9 206.8h9m552.1 0h-9"/><text transform="translate(45.6 210.7)" stroke="none" fill="#000" font-family="Arial" font-size="12" text-anchor="end"><tspan>650</tspan></text></g><g fill="none" color="#000" stroke="currentColor"><path stroke="#000" d="M53.9 111.8h9m552.1 0h-9"/><text transform="translate(45.6 115.7)" stroke="none" fill="#000" font-family="Arial" font-size="12" text-anchor="end"><tspan>700</tspan></text></g><g fill="none" color="#000" stroke="currentColor"><path stroke="#000" d="M53.9 428v-9m0-400.9v9"/><text transform="translate(53.9 449.9)" stroke="none" fill="#000" font-family="Arial" font-size="12" text-anchor="middle"><tspan>0</tspan></text></g><g fill="none" color="#000" stroke="currentColor"><path stroke="#000" d="M110.6 428v-9m0-400.9v9"/><text transform="translate(110.6 449.9)" stroke="none" fill="#000" font-family="Arial" font-size="12" text-anchor="middle"><tspan>10</tspan></text></g><g fill="none" color="#000" stroke="currentColor"><path stroke="#000" d="M167.3 428v-9m0-400.9v9"/><text transform="translate(167.3 449.9)" stroke="none" fill="#000" font-family="Arial" font-size="12" text-anchor="middle"><tspan>20</tspan></text></g><g fill="none" color="#000" stroke="currentColor"><path stroke="#000" d="M223.9 428v-9m0-400.9v9"/><text transform="translate(223.9 449.9)" stroke="none" fill="#000" font-family="Arial" font-size="12" text-anchor="middle"><tspan>30</tspan></text></g><g fill="none" color="#000" stroke="currentColor"><path stroke="#000" d="M280.6 428v-9m0-400.9v9"/><text transform="translate(280.6 449.9)" stroke="none" fill="#000" font-family="Arial" font-size="12" text-anchor="middle"><tspan>40</tspan></text></g><g fill="none" color="#000" stroke="currentColor"><path stroke="#000" d="M337.3 428v-9m0-400.9v9"/><text transform="translate(337.3 449.9)" stroke="none" fill="#000" font-family="Arial" font-size="12" text-anchor="middle"><tspan>50</tspan></text></g><g fill="none" color="#000" stroke="currentColor"><path stroke="#000" d="M394 428v-9m0-400.9v9"/><text transform="translate(394 449.9)" stroke="none" fill="#000" font-family="Arial" font-size="12" text-anchor="middle"><tspan>60</tspan></text></g><g fill="none" color="#000" stroke="currentColor"><path stroke="#000" d="M450.6 428v-9m0-400.9v9"/><text transform="translate(450.6 449.9)" stroke="none" fill="#000" font-family="Arial" font-size="12" text-anchor="middle"><tspan>70</tspan></text></g><g fill="none" color="#000" stroke="currentColor"><path stroke="#000" d="M507.3 428v-9m0-400.9v9"/><text transform="translate(507.3 449.9)" stroke="none" fill="#000" font-family="Arial" font-size="12" text-anchor="middle"><tspan>80</tspan></text></g><g fill="none" color="#000" stroke="currentColor"><path stroke="#000" d="M564 428v-9m0-400.9v9"/><text transform="translate(564 449.9)" stroke="none" fill="#000" font-family="Arial" font-size="12" text-anchor="middle"><tspan>90</tspan></text></g><path stroke="#000" d="M53.9 18.1V428H615V18.1H53.9z" fill="none" color="#000"/><text transform="translate(275.6 467.9)" stroke="none" fill="#000" font-family="Arial" font-size="12" text-anchor="end" color="#000"><tspan>pages</tspan></text><path stroke="#9400D3" d="M283.9 464h42.2M53.9 26l5.7 105.1 5.6 240.5 5.7-56.6 5.7 36.5 5.6-70.5 5.7 56.1 5.7-1.7 5.6-42.2 5.7-.4 5.7 38.4 5.6 42 5.7-17.3 5.7-35.5 5.6 53.1 5.7-72.3 5.7 19.3 5.7-14.1 5.6 18.4 5.7-37.3 5.7 1.5 5.6 22.3 5.7 30.2 5.7 5 5.6-53.2 5.7 23.1 5.7 8.7 5.6 44.4 5.7-31 5.7 6.7 5.6-48.7 5.7-9.4 5.7 65.5 5.6-22.5 5.7 25.4 5.7-21.7 5.6.7 5.7 4.2 5.7-28.6 5.6-.2 5.7 20 5.7 5.7 5.6-.4 5.7-65 5.7 13.3 5.6 22.9 5.7-7.2 5.7 39.2 5.6-9 5.7-43.3 5.7 54.4 5.7 17.4 5.6 30.3 5.7-64.6 5.7.9 5.6-16.1 5.7 52.4 5.7-56.5 5.6 30.1 5.7-2.8 5.7-24.3 5.6 36.4 5.7-54.7 5.7 46 5.6-12.6 5.7-9L428 302l5.6 46.6 5.7-41.7L445 373l5.6-47.1 5.7 45.9 5.7-21.6 5.6-80.1 5.7 50.8 5.7-.3 5.6-.1 5.7 17.8 5.7-46.4 5.6 57.6 5.7-16.9 5.7-15 5.6 10.6 5.7-15.6 5.7 10.1 5.7-43.9 5.6-180 5.7 234.6 5.7-9.4 5.6 13.9 5.7-23.4 5.7 52.1 5.6-43.8 5.7 2.9 5.7-36.2 5.6 42.1 5.7-8.1 5.7-20.6 5.6 22 5.7-30.2" fill="none" color="#000"/><text transform="translate(275.6 485.9)" stroke="none" fill="#000" font-family="Arial" font-size="12" text-anchor="end" color="#000"><tspan>pages+cached</tspan></text><path stroke="#009E73" d="M283.9 482h42.2M53.9 361l5.7-9.3 5.6 25.7 5.7-27.7 5.7 4.6 5.6-81.3 5.7 128.9 5.7-67.9 5.6 51.7 5.7-27.7 5.7 40.7 5.6-4.3 5.7-37.8 5.7-111.9 5.6 109.7 5.7-25.1 5.7 70.5 5.7-78.6 5.6 25.8 5.7 52.1 5.7-44.6 5.6-2.3 5.7-9 5.7 54.1 5.6-57.4 5.7-28.7 5.7 83.9 5.6-46.4 5.7 13.5 5.7 23.7 5.6-35.9 5.7 39.6 5.7 13.9 5.6 3.9 5.7 5.3 5.7-87.5 5.6 49.2 5.7-128.4 5.7 144.7 5.6-11.5 5.7-28 5.7.4 5.6-15.8 5.7-26.9 5.7 84 5.6-54.5 5.7 60.3 5.7-98.4 5.6 106 5.7-59.9 5.7 47.4 5.7-96.1 5.6 83.6 5.7 7.2 5.7-46.3 5.6 33.5 5.7-2.7 5.7 13.6 5.6-24.4 5.7-17.9 5.7 60.4 5.6-22 5.7 28.9L411 380l5.6-36.3 5.7-19.4 5.7 74.9 5.6-39.1 5.7 24.4 5.7 16.1 5.6 2.6 5.7-4.9 5.7-66.8 5.6 44.8 5.7-18.6 5.7 33.7 5.6 10.8 5.7 17.9 5.7-24.8 5.6-38.7 5.7-21.4 5.7 27.2 5.6-7.5 5.7 52.2 5.7-12 5.7 10.8 5.6-10.9 5.7 4 5.7 2.2 5.6 1.1 5.7-49.9 5.7 37.3 5.6-3.7 5.7 14.8 5.7-53.9 5.6 55.6 5.7-4.1 5.7-.4 5.6-56.7 5.7 3" fill="none" color="#000"/><text transform="translate(475.5 467.9)" stroke="none" fill="#000" font-family="Arial" font-size="12" text-anchor="end" color="#000"><tspan>score p10=1282</tspan></text><path stroke="#56B4E9" d="M483.8 464H526" fill="none" color="#000"/><g><text transform="translate(475.5 485.9)" stroke="none" fill="#000" font-family="Arial" font-size="12" text-anchor="end" color="#000"><tspan>score median=3500</tspan></text><path stroke="#E69F00" d="M483.8 482H526" fill="none" color="#000"/></g><g fill="none" color="#000" stroke="currentColor"><path stroke="#000" d="M53.9 18.1V428H615V18.1H53.9z"/></g></svg>

<?xml version="1.0" encoding="utf-8"  standalone="no"?>
<svg 
 width="640" height="500"
 viewBox="0 0 640 500"
 xmlns="http://www.w3.org/2000/svg"
 xmlns:xlink="http://www.w3.org/1999/xlink"
>

<title>Gnuplot</title>
<desc>Produced by GNUPLOT 5.4 patchlevel 0 </desc>

<g id="gnuplot_canvas">

<rect x="0" y="0" width="640" height="500" fill="#ffffff"/>
<defs>

	<circle id='gpDot' r='0.5' stroke-width='0.5' stroke='currentColor'/>
	<path id='gpPt0' stroke-width='0.222' stroke='currentColor' d='M-1,0 h2 M0,-1 v2'/>
	<path id='gpPt1' stroke-width='0.222' stroke='currentColor' d='M-1,-1 L1,1 M1,-1 L-1,1'/>
	<path id='gpPt2' stroke-width='0.222' stroke='currentColor' d='M-1,0 L1,0 M0,-1 L0,1 M-1,-1 L1,1 M-1,1 L1,-1'/>
	<rect id='gpPt3' stroke-width='0.222' stroke='currentColor' x='-1' y='-1' width='2' height='2'/>
	<rect id='gpPt4' stroke-width='0.222' stroke='currentColor' fill='currentColor' x='-1' y='-1' width='2' height='2'/>
	<circle id='gpPt5' stroke-width='0.222' stroke='currentColor' cx='0' cy='0' r='1'/>
	<use xlink:href='#gpPt5' id='gpPt6' fill='currentColor' stroke='none'/>
	<path id='gpPt7' stroke-width='0.222' stroke='currentColor' d='M0,-1.33 L-1.33,0.67 L1.33,0.67 z'/>
	<use xlink:href='#gpPt7' id='gpPt8' fill='currentColor' stroke='none'/>
	<use xlink:href='#gpPt7' id='gpPt9' stroke='currentColor' transform='rotate(180)'/>
	<use xlink:href='#gpPt9' id='gpPt10' fill='currentColor' stroke='none'/>
	<use xlink:href='#gpPt3' id='gpPt11' stroke='currentColor' transform='rotate(45)'/>
	<use xlink:href='#gpPt11' id='gpPt12' fill='currentColor' stroke='none'/>
	<path id='gpPt13' stroke-width='0.222' stroke='currentColor' d='M0,1.330 L1.265,0.411 L0.782,-1.067 L-0.782,-1.076 L-1.265,0.411 z'/>
	<use xlink:href='#gpPt13' id='gpPt14' fill='currentColor' stroke='none'/>
	<filter id='textbox' filterUnits='objectBoundingBox' x='0' y='0' height='1' width='1'>
	  <feFlood flood-color='#FFFFFF' flood-opacity='1' result='bgnd'/>
	  <feComposite in='SourceGraphic' in2='bgnd' operator='atop'/>
	</filter>
	<filter id='greybox' filterUnits='objectBoundingBox' x='0' y='0' height='1' width='1'>
	  <feFlood flood-color='lightgrey' flood-opacity='1' result='grey'/>
	  <feComposite in='SourceGraphic' in2='grey' operator='atop'/>
	</filter>
</defs>
<g fill="none" color="#FFFFFF" stroke="black" stroke-width="1.00" stroke-linecap="butt" stroke-linejoin="miter">
</g>
<g fill="none" color="black" stroke="currentColor" stroke-width="1.00" stroke-linecap="butt" stroke-linejoin="miter">
	<path stroke='black'  d='M53.9,396.8 L62.9,396.8 M615.0,396.8 L606.0,396.8  '/>	<g transform="translate(45.6,400.7)" stroke="none" fill="black" font-family="Arial" font-size="12.00"  text-anchor="end">
		<text><tspan font-family="Arial" > 550</tspan></text>
	</g>
</g>
<g fill="none" color="black" stroke="currentColor" stroke-width="1.00" stroke-linecap="butt" stroke-linejoin="miter">
	<path stroke='black'  d='M53.9,301.8 L62.9,301.8 M615.0,301.8 L606.0,301.8  '/>	<g transform="translate(45.6,305.7)" stroke="none" fill="black" font-family="Arial" font-size="12.00"  text-anchor="end">
		<text><tspan font-family="Arial" > 600</tspan></text>
	</g>
</g>
<g fill="none" color="black" stroke="currentColor" stroke-width="1.00" stroke-linecap="butt" stroke-linejoin="miter">
	<path stroke='black'  d='M53.9,206.8 L62.9,206.8 M615.0,206.8 L606.0,206.8  '/>	<g transform="translate(45.6,210.7)" stroke="none" fill="black" font-family="Arial" font-size="12.00"  text-anchor="end">
		<text><tspan font-family="Arial" > 650</tspan></text>
	</g>
</g>
<g fill="none" color="black" stroke="currentColor" stroke-width="1.00" stroke-linecap="butt" stroke-linejoin="miter">
	<path stroke='black'  d='M53.9,111.8 L62.9,111.8 M615.0,111.8 L606.0,111.8  '/>	<g transform="translate(45.6,115.7)" stroke="none" fill="black" font-family="Arial" font-size="12.00"  text-anchor="end">
		<text><tspan font-family="Arial" > 700</tspan></text>
	</g>
</g>
<g fill="none" color="black" stroke="currentColor" stroke-width="1.00" stroke-linecap="butt" stroke-linejoin="miter">
	<path stroke='black'  d='M53.9,428.0 L53.9,419.0 M53.9,18.1 L53.9,27.1  '/>	<g transform="translate(53.9,449.9)" stroke="none" fill="black" font-family="Arial" font-size="12.00"  text-anchor="middle">
		<text><tspan font-family="Arial" > 0</tspan></text>
	</g>
</g>
<g fill="none" color="black" stroke="currentColor" stroke-width="1.00" stroke-linecap="butt" stroke-linejoin="miter">
	<path stroke='black'  d='M110.6,428.0 L110.6,419.0 M110.6,18.1 L110.6,27.1  '/>	<g transform="translate(110.6,449.9)" stroke="none" fill="black" font-family="Arial" font-size="12.00"  text-anchor="middle">
		<text><tspan font-family="Arial" > 10</tspan></text>
	</g>
</g>
<g fill="none" color="black" stroke="currentColor" stroke-width="1.00" stroke-linecap="butt" stroke-linejoin="miter">
	<path stroke='black'  d='M167.3,428.0 L167.3,419.0 M167.3,18.1 L167.3,27.1  '/>	<g transform="translate(167.3,449.9)" stroke="none" fill="black" font-family="Arial" font-size="12.00"  text-anchor="middle">
		<text><tspan font-family="Arial" > 20</tspan></text>
	</g>
</g>
<g fill="none" color="black" stroke="currentColor" stroke-width="1.00" stroke-linecap="butt" stroke-linejoin="miter">
	<path stroke='black'  d='M223.9,428.0 L223.9,419.0 M223.9,18.1 L223.9,27.1  '/>	<g transform="translate(223.9,449.9)" stroke="none" fill="black" font-family="Arial" font-size="12.00"  text-anchor="middle">
		<text><tspan font-family="Arial" > 30</tspan></text>
	</g>
</g>
<g fill="none" color="black" stroke="currentColor" stroke-width="1.00" stroke-linecap="butt" stroke-linejoin="miter">
	<path stroke='black'  d='M280.6,428.0 L280.6,419.0 M280.6,18.1 L280.6,27.1  '/>	<g transform="translate(280.6,449.9)" stroke="none" fill="black" font-family="Arial" font-size="12.00"  text-anchor="middle">
		<text><tspan font-family="Arial" > 40</tspan></text>
	</g>
</g>
<g fill="none" color="black" stroke="currentColor" stroke-width="1.00" stroke-linecap="butt" stroke-linejoin="miter">
	<path stroke='black'  d='M337.3,428.0 L337.3,419.0 M337.3,18.1 L337.3,27.1  '/>	<g transform="translate(337.3,449.9)" stroke="none" fill="black" font-family="Arial" font-size="12.00"  text-anchor="middle">
		<text><tspan font-family="Arial" > 50</tspan></text>
	</g>
</g>
<g fill="none" color="black" stroke="currentColor" stroke-width="1.00" stroke-linecap="butt" stroke-linejoin="miter">
	<path stroke='black'  d='M394.0,428.0 L394.0,419.0 M394.0,18.1 L394.0,27.1  '/>	<g transform="translate(394.0,449.9)" stroke="none" fill="black" font-family="Arial" font-size="12.00"  text-anchor="middle">
		<text><tspan font-family="Arial" > 60</tspan></text>
	</g>
</g>
<g fill="none" color="black" stroke="currentColor" stroke-width="1.00" stroke-linecap="butt" stroke-linejoin="miter">
	<path stroke='black'  d='M450.6,428.0 L450.6,419.0 M450.6,18.1 L450.6,27.1  '/>	<g transform="translate(450.6,449.9)" stroke="none" fill="black" font-family="Arial" font-size="12.00"  text-anchor="middle">
		<text><tspan font-family="Arial" > 70</tspan></text>
	</g>
</g>
<g fill="none" color="black" stroke="currentColor" stroke-width="1.00" stroke-linecap="butt" stroke-linejoin="miter">
	<path stroke='black'  d='M507.3,428.0 L507.3,419.0 M507.3,18.1 L507.3,27.1  '/>	<g transform="translate(507.3,449.9)" stroke="none" fill="black" font-family="Arial" font-size="12.00"  text-anchor="middle">
		<text><tspan font-family="Arial" > 80</tspan></text>
	</g>
</g>
<g fill="none" color="black" stroke="currentColor" stroke-width="1.00" stroke-linecap="butt" stroke-linejoin="miter">
	<path stroke='black'  d='M564.0,428.0 L564.0,419.0 M564.0,18.1 L564.0,27.1  '/>	<g transform="translate(564.0,449.9)" stroke="none" fill="black" font-family="Arial" font-size="12.00"  text-anchor="middle">
		<text><tspan font-family="Arial" > 90</tspan></text>
	</g>
</g>
<g fill="none" color="black" stroke="currentColor" stroke-width="1.00" stroke-linecap="butt" stroke-linejoin="miter">
</g>
<g fill="none" color="black" stroke="currentColor" stroke-width="1.00" stroke-linecap="butt" stroke-linejoin="miter">
	<path stroke='black'  d='M53.9,18.1 L53.9,428.0 L615.0,428.0 L615.0,18.1 L53.9,18.1 Z  '/></g>
<g fill="none" color="black" stroke="currentColor" stroke-width="1.00" stroke-linecap="butt" stroke-linejoin="miter">
</g>
	<g id="gnuplot_plot_1" ><title>pages</title>
<g fill="none" color="black" stroke="currentColor" stroke-width="1.00" stroke-linecap="butt" stroke-linejoin="miter">
	<g transform="translate(275.6,467.9)" stroke="none" fill="black" font-family="Arial" font-size="12.00"  text-anchor="end">
		<text><tspan font-family="Arial" >pages</tspan></text>
	</g>
</g>
<g fill="none" color="black" stroke="currentColor" stroke-width="1.00" stroke-linecap="butt" stroke-linejoin="miter">
	<path stroke='rgb(148,   0, 211)'  d='M283.9,464.0 L326.1,464.0 M53.9,26.0 L59.6,131.1 L65.2,371.6 L70.9,315.0 L76.6,351.5 L82.2,281.0
		L87.9,337.1 L93.6,335.4 L99.2,293.2 L104.9,292.8 L110.6,331.2 L116.2,373.2 L121.9,355.9 L127.6,320.4
		L133.2,373.5 L138.9,301.2 L144.6,320.5 L150.3,306.4 L155.9,324.8 L161.6,287.5 L167.3,289.0 L172.9,311.3
		L178.6,341.5 L184.3,346.5 L189.9,293.3 L195.6,316.4 L201.3,325.1 L206.9,369.5 L212.6,338.5 L218.3,345.2
		L223.9,296.5 L229.6,287.1 L235.3,352.6 L240.9,330.1 L246.6,355.5 L252.3,333.8 L257.9,334.5 L263.6,338.7
		L269.3,310.1 L274.9,309.9 L280.6,329.9 L286.3,335.6 L291.9,335.2 L297.6,270.2 L303.3,283.5 L308.9,306.4
		L314.6,299.2 L320.3,338.4 L325.9,329.4 L331.6,286.1 L337.3,340.5 L343.0,357.9 L348.6,388.2 L354.3,323.6
		L360.0,324.5 L365.6,308.4 L371.3,360.8 L377.0,304.3 L382.6,334.4 L388.3,331.6 L394.0,307.3 L399.6,343.7
		L405.3,289.0 L411.0,335.0 L416.6,322.4 L422.3,313.4 L428.0,302.0 L433.6,348.6 L439.3,306.9 L445.0,373.0
		L450.6,325.9 L456.3,371.8 L462.0,350.2 L467.6,270.1 L473.3,320.9 L479.0,320.6 L484.6,320.5 L490.3,338.3
		L496.0,291.9 L501.6,349.5 L507.3,332.6 L513.0,317.6 L518.6,328.2 L524.3,312.6 L530.0,322.7 L535.7,278.8
		L541.3,98.8 L547.0,333.4 L552.7,324.0 L558.3,337.9 L564.0,314.5 L569.7,366.6 L575.3,322.8 L581.0,325.7
		L586.7,289.5 L592.3,331.6 L598.0,323.5 L603.7,302.9 L609.3,324.9 L615.0,294.7  '/></g>
	</g>
	<g id="gnuplot_plot_2" ><title>pages+cached</title>
<g fill="none" color="black" stroke="currentColor" stroke-width="1.00" stroke-linecap="butt" stroke-linejoin="miter">
	<g transform="translate(275.6,485.9)" stroke="none" fill="black" font-family="Arial" font-size="12.00"  text-anchor="end">
		<text><tspan font-family="Arial" >pages+cached</tspan></text>
	</g>
</g>
<g fill="none" color="black" stroke="currentColor" stroke-width="1.00" stroke-linecap="butt" stroke-linejoin="miter">
	<path stroke='rgb(  0, 158, 115)'  d='M283.9,482.0 L326.1,482.0 M53.9,361.0 L59.6,351.7 L65.2,377.4 L70.9,349.7 L76.6,354.3 L82.2,273.0
		L87.9,401.9 L93.6,334.0 L99.2,385.7 L104.9,358.0 L110.6,398.7 L116.2,394.4 L121.9,356.6 L127.6,244.7
		L133.2,354.4 L138.9,329.3 L144.6,399.8 L150.3,321.2 L155.9,347.0 L161.6,399.1 L167.3,354.5 L172.9,352.2
		L178.6,343.2 L184.3,397.3 L189.9,339.9 L195.6,311.2 L201.3,395.1 L206.9,348.7 L212.6,362.2 L218.3,385.9
		L223.9,350.0 L229.6,389.6 L235.3,403.5 L240.9,407.4 L246.6,412.7 L252.3,325.2 L257.9,374.4 L263.6,246.0
		L269.3,390.7 L274.9,379.2 L280.6,351.2 L286.3,351.6 L291.9,335.8 L297.6,308.9 L303.3,392.9 L308.9,338.4
		L314.6,398.7 L320.3,300.3 L325.9,406.3 L331.6,346.4 L337.3,393.8 L343.0,297.7 L348.6,381.3 L354.3,388.5
		L360.0,342.2 L365.6,375.7 L371.3,373.0 L377.0,386.6 L382.6,362.2 L388.3,344.3 L394.0,404.7 L399.6,382.7
		L405.3,411.6 L411.0,380.0 L416.6,343.7 L422.3,324.3 L428.0,399.2 L433.6,360.1 L439.3,384.5 L445.0,400.6
		L450.6,403.2 L456.3,398.3 L462.0,331.5 L467.6,376.3 L473.3,357.7 L479.0,391.4 L484.6,402.2 L490.3,420.1
		L496.0,395.3 L501.6,356.6 L507.3,335.2 L513.0,362.4 L518.6,354.9 L524.3,407.1 L530.0,395.1 L535.7,405.9
		L541.3,395.0 L547.0,399.0 L552.7,401.2 L558.3,402.3 L564.0,352.4 L569.7,389.7 L575.3,386.0 L581.0,400.8
		L586.7,346.9 L592.3,402.5 L598.0,398.4 L603.7,398.0 L609.3,341.3 L615.0,344.3  '/></g>
	</g>
	<g id="gnuplot_plot_3" ><title>score p10=1282</title>
<g fill="none" color="black" stroke="currentColor" stroke-width="1.00" stroke-linecap="butt" stroke-linejoin="miter">
	<g transform="translate(475.5,467.9)" stroke="none" fill="black" font-family="Arial" font-size="12.00"  text-anchor="end">
		<text><tspan font-family="Arial" >score p10=1282</tspan></text>
	</g>
</g>
<g fill="none" color="black" stroke="currentColor" stroke-width="1.00" stroke-linecap="butt" stroke-linejoin="miter">
	<path stroke='rgb( 86, 180, 233)'  d='M483.8,464.0 L526.0,464.0  '/></g>
	</g>
	<g id="gnuplot_plot_4" ><title>score median=3500</title>
<g fill="none" color="black" stroke="currentColor" stroke-width="1.00" stroke-linecap="butt" stroke-linejoin="miter">
	<g transform="translate(475.5,485.9)" stroke="none" fill="black" font-family="Arial" font-size="12.00"  text-anchor="end">
		<text><tspan font-family="Arial" >score median=3500</tspan></text>
	</g>
</g>
<g fill="none" color="black" stroke="currentColor" stroke-width="1.00" stroke-linecap="butt" stroke-linejoin="miter">
	<path stroke='rgb(230, 159,   0)'  d='M483.8,482.0 L526.0,482.0  '/></g>
	</g>
<g fill="none" color="#FFFFFF" stroke="rgb(230, 159,   0)" stroke-width="2.00" stroke-linecap="butt" stroke-linejoin="miter">
</g>
<g fill="none" color="black" stroke="currentColor" stroke-width="2.00" stroke-linecap="butt" stroke-linejoin="miter">
</g>
<g fill="none" color="black" stroke="black" stroke-width="1.00" stroke-linecap="butt" stroke-linejoin="miter">
</g>
<g fill="none" color="black" stroke="currentColor" stroke-width="1.00" stroke-linecap="butt" stroke-linejoin="miter">
	<path stroke='black'  d='M53.9,18.1 L53.9,428.0 L615.0,428.0 L615.0,18.1 L53.9,18.1 Z  '/></g>
<g fill="none" color="black" stroke="currentColor" stroke-width="1.00" stroke-linecap="butt" stroke-linejoin="miter">
</g>
</g>
</svg>
